X: 8830
T: Cuil Aodha, The
R: jig
M: 6/8
K: Emajor
|:g|edB AFB|EBB, EGA|BB,B, AFE|(3DEF B, AFB|
B,EE B,EE|~FEF daf|edB AFA|BEE E2:|
e|ebg ~e3|fBc def|edB ~A3|BAF =D2 A|
GFE ~e3|fBc def|edB AFA|BEE E2e|
ebg ~e3|fBc def|edB ~A3|BAF =D2 F|
EGB ~e3|fBc def|edB AFA|BEE E2||

